build/system/InboxOutline.svg

<svg xmlns="http://www.w3.org/2000/svg" fill="none" viewBox="0 0 24 24" focusable="false"><path d="M0 0H24V24H0z"/><path fill="#74767B" fill-rule="evenodd" d="M7.01886 4C5.34843 4 4 5.33916 4 6.99813L4 17.0019C4 18.6608 5.34843 20 7.01886 20L16.9811 20C18.6516 20 20 18.6608 20 17.0019L20 6.99813C20 5.33916 18.6415 4 16.9811 4L7.01886 4ZM18.6918 6.99813C18.6918 6.05871 17.927 5.29919 16.9811 5.29919L7.01886 5.29919C6.07295 5.29919 5.30817 6.05871 5.30817 6.99813C5.30817 8.23402 5.30817 9.46991 5.30817 10.7058L8.99999 10.7058C9.36123 10.7058 9.6541 10.9966 9.6541 11.3554L9.6541 11.8395C9.6541 12.8692 10.4946 13.7039 11.5314 13.7039L12.5692 13.7039C13.606 13.7039 14.4465 12.8692 14.4465 11.8395L14.4465 11.3554C14.4465 10.9966 14.7394 10.7058 15.1006 10.7058L18.6918 10.7058C18.6918 9.46991 18.6918 8.23402 18.6918 6.99813ZM5.30817 17.0019L5.30817 12.005L8.35019 12.005C8.43654 13.6689 9.8173 14.9929 11.5118 15.0031L12.5967 15.0031C14.2875 14.9889 15.6642 13.6663 15.7504 12.005L18.6918 12.005L18.6918 17.0019C18.6918 17.9413 17.927 18.7008 16.9811 18.7008L7.01886 18.7008C6.07295 18.7008 5.30817 17.9413 5.30817 17.0019Z"/></svg>

<svg xmlns="http://www.w3.org/2000/svg" fill="none" viewBox="0 0 24 24" focusable="false"><path fill="#74767B" fill-rule="evenodd" d="M7.01 4A2.99 2.99 0 0 0 4 6.99V17c0 1.66 1.34 3 3.01 3h9.97c1.67 0 3.02-1.34 3.02-3V6.99C20 5.33 18.64 4 16.98 4zm11.68 2.99c0-.94-.77-1.7-1.71-1.7H7.01c-.94 0-1.71.76-1.71 1.7v3.71H9c.36 0 .65.29.65.65v.48c0 1.03.84 1.87 1.88 1.87h1.03c1.04 0 1.88-.84 1.88-1.87v-.48c0-.36.29-.65.66-.65h3.59zM5.3 17v-5h3.05c.08 1.66 1.46 2.99 3.16 3h1.08c1.69-.02 3.07-1.34 3.16-3h2.94v5c0 .94-.77 1.7-1.71 1.7H7.01c-.94 0-1.71-.76-1.71-1.7"/></svg>
